X: 125
T: Rolling In The Barrel
M: 4/4
L: 1/8
R: reel
K:Edor
"Em"E2~E2 BE~E2 | "D"B2AF DEFD |"Em" E2~E2 BE~E2 | "D"B2Ad "Em"BEED |
"Em"EE~E2 BE~E2 |"D" B2AF DEFD | "Em" EGFE BE~E2 | "D"dBAd "Em"BE~E2 ||
"Em"e2 (3gfe bege | "D"dcdf a2fd | "Em"e2ge bege | "D"dBAd "Em"BE~E2 |
"Em"e2 ge be (3gfe | "D"dcdf a2fd | "Em"effe "D"f2 ec | "D"dB Ad "Em"BE~E2 |]


